X: 2
T: The Coolin
R: waltz
M: 3/4
L: 1/8
K: Dmaj
|:(3ABc|d2 ~d>f (f/e/)d/c/|~d2 A2 (3DFA|d2 (de/f/) {f}e>d|(d2c)z ~d>c|~(B2 B)c/d/ (e/d/)(c/B/)|A2 (FA) (d>A)|(c/B/)A/G/ F2 E2|D4:||:A>G|~F>E (D>E) (FG)|A>^G AB cA|~d>c (de/f/) ed|(d2c2) d>c|~B2 (B/c/d/c/) (e/d/)(c/B/)|A2 (FA) d>A|(c/B/)(A/G/) F2 E2|D4:|


Tune 1815	Setting 23158

